storage/app/icons/phosphoricons/regular/archive.svg

<svg xmlns="http://www.w3.org/2000/svg" fill="currentColor" viewBox="0 0 256 256"><path d="M224 48H32a16 16 0 0 0-16 16v24a16 16 0 0 0 16 16v88a16 16 0 0 0 16 16h160a16 16 0 0 0 16-16v-88a16 16 0 0 0 16-16V64a16 16 0 0 0-16-16m-16 144H48v-88h160Zm16-104H32V64h192zM96 136a8 8 0 0 1 8-8h48a8 8 0 0 1 0 16h-48a8 8 0 0 1-8-8"/></svg>

<svg xmlns="http://www.w3.org/2000/svg" viewBox="0 0 256 256" fill="currentColor"><path d="M224,48H32A16,16,0,0,0,16,64V88a16,16,0,0,0,16,16v88a16,16,0,0,0,16,16H208a16,16,0,0,0,16-16V104a16,16,0,0,0,16-16V64A16,16,0,0,0,224,48ZM208,192H48V104H208ZM224,88H32V64H224V88ZM96,136a8,8,0,0,1,8-8h48a8,8,0,0,1,0,16H104A8,8,0,0,1,96,136Z"/></svg>
